public/assets/images/simpleInterface.svg

<svg width="42" height="69" viewBox="0 0 42 69" fill="none" xmlns="http://www.w3.org/2000/svg">
<mask id="path-1-inside-1_4499_1683" fill="white">
<path d="M37.4867 65H5.64197C3.1345 65 1.25391 63.1609 1.25391 60.977V20.2874C1.25391 19.7126 1.7554 19.3678 2.25689 19.3678C2.75838 19.3678 3.25988 19.8276 3.25988 20.2874V60.977C3.25988 62.1264 4.26286 63.1609 5.64197 63.1609H37.4867C38.7405 63.1609 39.8688 62.2414 39.8688 60.977V9.02299C39.8688 7.87356 38.8658 6.83908 37.4867 6.83908H5.64197C4.38823 6.83908 3.25988 7.75862 3.25988 9.02299V12.7011C3.25988 13.2759 2.75838 13.6207 2.25689 13.6207C1.7554 13.6207 1.25391 13.2759 1.25391 12.8161V9.02299C1.25391 6.83908 3.1345 5 5.64197 5H37.4867C39.9942 5 41.8748 6.83908 41.8748 9.02299V60.8621C42.0002 63.1609 39.9942 65 37.4867 65Z"/>
</mask>
<path d="M37.4867 65H5.64197C3.1345 65 1.25391 63.1609 1.25391 60.977V20.2874C1.25391 19.7126 1.7554 19.3678 2.25689 19.3678C2.75838 19.3678 3.25988 19.8276 3.25988 20.2874V60.977C3.25988 62.1264 4.26286 63.1609 5.64197 63.1609H37.4867C38.7405 63.1609 39.8688 62.2414 39.8688 60.977V9.02299C39.8688 7.87356 38.8658 6.83908 37.4867 6.83908H5.64197C4.38823 6.83908 3.25988 7.75862 3.25988 9.02299V12.7011C3.25988 13.2759 2.75838 13.6207 2.25689 13.6207C1.7554 13.6207 1.25391 13.2759 1.25391 12.8161V9.02299C1.25391 6.83908 3.1345 5 5.64197 5H37.4867C39.9942 5 41.8748 6.83908 41.8748 9.02299V60.8621C42.0002 63.1609 39.9942 65 37.4867 65Z" fill="#FF588A"/>
<path d="M41.8748 60.8621H38.8748V60.9438L38.8793 61.0254L41.8748 60.8621ZM37.4867 62H5.64197V68H37.4867V62ZM5.64197 62C4.59869 62 4.25391 61.3177 4.25391 60.977H-1.74609C-1.74609 65.0041 1.67032 68 5.64197 68V62ZM4.25391 60.977V20.2874H-1.74609V60.977H4.25391ZM4.25391 20.2874C4.25391 20.953 3.93462 21.5413 3.49746 21.9087C3.10811 22.2359 2.66256 22.3678 2.25689 22.3678V16.3678C0.608413 16.3678 -1.74609 17.5882 -1.74609 20.2874H4.25391ZM2.25689 22.3678C1.62034 22.3678 1.17464 22.1008 0.919105 21.8665C0.680758 21.648 0.259876 21.129 0.259876 20.2874H6.25988C6.25988 18.9859 5.58825 18.0072 4.97378 17.4439C4.34213 16.8648 3.39493 16.3678 2.25689 16.3678V22.3678ZM0.259876 20.2874V60.977H6.25988V20.2874H0.259876ZM0.259876 60.977C0.259876 63.9242 2.75056 66.1609 5.64197 66.1609V60.1609C5.77517 60.1609 6.25988 60.3286 6.25988 60.977H0.259876ZM5.64197 66.1609H37.4867V60.1609H5.64197V66.1609ZM37.4867 66.1609C40.0392 66.1609 42.8688 64.235 42.8688 60.977H36.8688C36.8688 60.664 37.0225 60.4178 37.1609 60.2955C37.2789 60.1912 37.393 60.1609 37.4867 60.1609V66.1609ZM42.8688 60.977V9.02299H36.8688V60.977H42.8688ZM42.8688 9.02299C42.8688 6.07577 40.3782 3.83908 37.4867 3.83908V9.83908C37.3535 9.83908 36.8688 9.67136 36.8688 9.02299H42.8688ZM37.4867 3.83908H5.64197V9.83908H37.4867V3.83908ZM5.64197 3.83908C3.08951 3.83908 0.259876 5.765 0.259876 9.02299H6.25988C6.25988 9.33602 6.10617 9.58217 5.96779 9.7045C5.84978 9.80883 5.73571 9.83908 5.64197 9.83908V3.83908ZM0.259876 9.02299V12.7011H6.25988V9.02299H0.259876ZM0.259876 12.7011C0.259876 12.0355 0.579159 11.4472 1.01632 11.0798C1.40567 10.7526 1.85123 10.6207 2.25689 10.6207V16.6207C3.90537 16.6207 6.25988 15.4003 6.25988 12.7011H0.259876ZM2.25689 10.6207C2.65632 10.6207 3.04724 10.7461 3.38863 11.0069C3.73563 11.272 4.25391 11.8774 4.25391 12.8161H-1.74609C-1.74609 14.2146 -0.977067 15.2222 -0.253953 15.7747C0.463554 16.3229 1.35597 16.6207 2.25689 16.6207V10.6207ZM4.25391 12.8161V9.02299H-1.74609V12.8161H4.25391ZM4.25391 9.02299C4.25391 8.68226 4.59869 8 5.64197 8V2C1.67032 2 -1.74609 4.99591 -1.74609 9.02299H4.25391ZM5.64197 8H37.4867V2H5.64197V8ZM37.4867 8C38.53 8 38.8748 8.68226 38.8748 9.02299H44.8748C44.8748 4.9959 41.4584 2 37.4867 2V8ZM38.8748 9.02299V60.8621H44.8748V9.02299H38.8748ZM38.8793 61.0254C38.8894 61.2117 38.8285 61.4061 38.6194 61.6015C38.3972 61.8093 38.0095 62 37.4867 62V68C41.3507 68 45.1082 65.0596 44.8704 60.6987L38.8793 61.0254Z" fill="#FF588A" mask="url(#path-1-inside-1_4499_1683)"/>
<mask id="path-3-inside-2_4499_1683" fill="white">
<path d="M37.2369 58.2183H5.89361C5.26674 58.2183 4.89062 57.7585 4.89062 57.2988V38.1034C4.89062 37.5287 5.39212 37.1838 5.89361 37.1838C6.52048 37.1838 6.89659 37.6436 6.89659 38.1034V56.2643H36.1085V13.7356H8.40107C7.77421 13.7356 7.39809 13.2758 7.39809 12.816C7.39809 12.3563 7.89958 11.8965 8.40107 11.8965H37.2369C37.8638 11.8965 38.2399 12.3563 38.2399 12.816V57.2988C38.3652 57.7585 37.8638 58.2183 37.2369 58.2183Z"/>
</mask>
<path d="M37.2369 58.2183H5.89361C5.26674 58.2183 4.89062 57.7585 4.89062 57.2988V38.1034C4.89062 37.5287 5.39212 37.1838 5.89361 37.1838C6.52048 37.1838 6.89659 37.6436 6.89659 38.1034V56.2643H36.1085V13.7356H8.40107C7.77421 13.7356 7.39809 13.2758 7.39809 12.816C7.39809 12.3563 7.89958 11.8965 8.40107 11.8965H37.2369C37.8638 11.8965 38.2399 12.3563 38.2399 12.816V57.2988C38.3652 57.7585 37.8638 58.2183 37.2369 58.2183Z" fill="#FF588A"/>
<path d="M6.89659 56.2643H3.89659V59.2643H6.89659V56.2643ZM36.1085 56.2643V59.2643H39.1085V56.2643H36.1085ZM36.1085 13.7356H39.1085V10.7356H36.1085V13.7356ZM38.2399 57.2988H35.2399V57.7005L35.3456 58.088L38.2399 57.2988ZM37.2369 55.2183H5.89361V61.2183H37.2369V55.2183ZM5.89361 55.2183C6.92402 55.2183 7.89062 56.1021 7.89062 57.2988H1.89062C1.89062 59.415 3.60947 61.2183 5.89361 61.2183V55.2183ZM7.89062 57.2988V38.1034H1.89062V57.2988H7.89062ZM7.89062 38.1034C7.89062 38.769 7.57134 39.3574 7.13418 39.7247C6.74483 40.052 6.29927 40.1838 5.89361 40.1838V34.1838C4.24513 34.1838 1.89062 35.4042 1.89062 38.1034H7.89062ZM5.89361 40.1838C4.8632 40.1838 3.89659 39.3 3.89659 38.1034H9.8966C9.8966 35.9872 8.17775 34.1838 5.89361 34.1838V40.1838ZM3.89659 38.1034V56.2643H9.8966V38.1034H3.89659ZM6.89659 59.2643H36.1085V53.2643H6.89659V59.2643ZM39.1085 56.2643V13.7356H33.1085V56.2643H39.1085ZM36.1085 10.7356H8.40107V16.7356H36.1085V10.7356ZM8.40107 10.7356C9.43148 10.7356 10.3981 11.6194 10.3981 12.816H4.39809C4.39809 14.9322 6.11693 16.7356 8.40107 16.7356V10.7356ZM10.3981 12.816C10.3981 13.6577 9.97721 14.1766 9.73886 14.3952C9.48333 14.6294 9.03762 14.8965 8.40107 14.8965V8.89648C7.26303 8.89648 6.31583 9.39343 5.68418 9.97253C5.06971 10.5359 4.39809 11.5146 4.39809 12.816H10.3981ZM8.40107 14.8965H37.2369V8.89648H8.40107V14.8965ZM37.2369 14.8965C36.2065 14.8965 35.2399 14.0127 35.2399 12.816H41.2399C41.2399 10.6998 39.521 8.89648 37.2369 8.89648V14.8965ZM35.2399 12.816V57.2988H41.2399V12.816H35.2399ZM35.3456 58.088C35.0343 56.9466 35.5989 56.0811 35.9931 55.7197C36.3897 55.356 36.8433 55.2183 37.2369 55.2183V61.2183C38.2573 61.2183 39.2751 60.8507 40.0478 60.1423C40.8182 59.436 41.5708 58.1108 41.1342 56.5095L35.3456 58.088Z" fill="#FF588A" mask="url(#path-3-inside-2_4499_1683)"/>
</svg>

<svg xmlns="http://www.w3.org/2000/svg" width="42" height="69" fill="none"><mask id="a" fill="#fff"><path d="M37.487 65H5.642c-2.508 0-4.388-1.84-4.388-4.023v-40.69c0-.574.501-.92 1.003-.92.501 0 1.003.46 1.003.92v40.69c0 1.15 1.003 2.184 2.382 2.184h31.845c1.253 0 2.382-.92 2.382-2.184V9.023c0-1.15-1.003-2.184-2.382-2.184H5.642c-1.254 0-2.382.92-2.382 2.184v3.678c0 .575-.502.92-1.003.92-.502 0-1.003-.345-1.003-.805V9.023C1.254 6.839 3.134 5 5.642 5h31.845c2.507 0 4.388 1.84 4.388 4.023v51.84C42 63.16 39.995 65 37.487 65Z"/></mask><path fill="#FF588A" d="M37.487 65H5.642c-2.508 0-4.388-1.84-4.388-4.023v-40.69c0-.574.501-.92 1.003-.92.501 0 1.003.46 1.003.92v40.69c0 1.15 1.003 2.184 2.382 2.184h31.845c1.253 0 2.382-.92 2.382-2.184V9.023c0-1.15-1.003-2.184-2.382-2.184H5.642c-1.254 0-2.382.92-2.382 2.184v3.678c0 .575-.502.92-1.003.92-.502 0-1.003-.345-1.003-.805V9.023C1.254 6.839 3.134 5 5.642 5h31.845c2.507 0 4.388 1.84 4.388 4.023v51.84C42 63.16 39.995 65 37.487 65Z"/><path fill="#FF588A" d="M41.875 60.862h-3v.082l.004.081 2.996-.163ZM37.487 62H5.642v6h31.845v-6ZM5.642 62c-1.043 0-1.388-.682-1.388-1.023h-6C-1.746 65.004 1.67 68 5.642 68v-6Zm-1.388-1.023v-40.69h-6v40.69h6Zm0-40.69c0 .666-.32 1.254-.757 1.622a1.92 1.92 0 0 1-1.24.459v-6c-1.649 0-4.003 1.22-4.003 3.92h6Zm-1.997 2.08a1.956 1.956 0 0 1-1.338-.5c-.238-.219-.66-.738-.66-1.58h6c0-1.301-.67-2.28-1.285-2.843-.632-.58-1.58-1.076-2.717-1.076v6ZM.26 20.288v40.69h6v-40.69h-6Zm0 40.69c0 2.947 2.49 5.184 5.382 5.184v-6c.133 0 .618.168.618.816h-6Zm5.382 5.184h31.845v-6H5.642v6Zm31.845 0c2.552 0 5.382-1.926 5.382-5.184h-6c0-.313.154-.56.292-.681a.484.484 0 0 1 .326-.135v6Zm5.382-5.184V9.023h-6v51.954h6Zm0-51.954c0-2.947-2.49-5.184-5.382-5.184v6c-.134 0-.618-.168-.618-.816h6Zm-5.382-5.184H5.642v6h31.845v-6Zm-31.845 0C3.09 3.84.26 5.765.26 9.023h6c0 .313-.154.56-.292.681a.484.484 0 0 1-.326.135v-6ZM.26 9.023v3.678h6V9.023h-6Zm0 3.678c0-.665.32-1.254.756-1.621a1.92 1.92 0 0 1 1.24-.46v6c1.65 0 4.004-1.22 4.004-3.919h-6Zm1.997-2.08c.4 0 .79.125 1.132.386.347.265.865.87.865 1.81h-6c0 1.398.769 2.405 1.492 2.958.718.548 1.61.846 2.51.846v-6Zm1.997 2.195V9.023h-6v3.793h6Zm0-3.793c0-.34.345-1.023 1.388-1.023V2C1.67 2-1.746 4.996-1.746 9.023h6ZM5.642 8h31.845V2H5.642v6Zm31.845 0c1.043 0 1.388.682 1.388 1.023h6C44.875 4.996 41.458 2 37.487 2v6Zm1.388 1.023v51.84h6V9.022h-6Zm.004 52.002c.01.187-.05.381-.26.577-.222.207-.61.398-1.132.398v6c3.864 0 7.621-2.94 7.383-7.301l-5.99.326Z" mask="url(#a)"/><mask id="b" fill="#fff"><path d="M37.237 58.218H5.894c-.627 0-1.003-.46-1.003-.92V38.104c0-.574.501-.92 1.003-.92.626 0 1.003.46 1.003.92v18.161h29.212V13.736H8.4c-.627 0-1.003-.46-1.003-.92s.502-.92 1.003-.92h28.836c.627 0 1.003.46 1.003.92v44.483c.125.46-.376.92-1.003.92Z"/></mask><path fill="#FF588A" d="M37.237 58.218H5.894c-.627 0-1.003-.46-1.003-.92V38.104c0-.574.501-.92 1.003-.92.626 0 1.003.46 1.003.92v18.161h29.212V13.736H8.4c-.627 0-1.003-.46-1.003-.92s.502-.92 1.003-.92h28.836c.627 0 1.003.46 1.003.92v44.483c.125.46-.376.92-1.003.92Z"/><path fill="#FF588A" d="M6.897 56.264h-3v3h3v-3Zm29.212 0v3h3v-3h-3Zm0-42.528h3v-3h-3v3Zm2.13 43.563h-3v.401l.107.388 2.894-.79Zm-1.002-2.08H5.894v6h31.343v-6Zm-31.343 0c1.03 0 1.997.883 1.997 2.08h-6c0 2.116 1.718 3.92 4.003 3.92v-6Zm1.997 2.08V38.103h-6V57.3h6Zm0-19.196c0 .666-.32 1.254-.757 1.622-.39.327-.835.459-1.24.459v-6c-1.649 0-4.003 1.22-4.003 3.92h6Zm-1.997 2.08c-1.03 0-1.997-.883-1.997-2.08h6c0-2.116-1.72-3.92-4.003-3.92v6Zm-1.997-2.08v18.161h6v-18.16h-6Zm3 21.161h29.212v-6H6.896v6Zm32.212-3V13.736h-6v42.528h6Zm-3-45.528H8.4v6h27.707v-6Zm-27.708 0c1.03 0 1.997.883 1.997 2.08h-6c0 2.116 1.719 3.92 4.003 3.92v-6Zm1.997 2.08c0 .842-.42 1.36-.66 1.58a1.956 1.956 0 0 1-1.337.5v-6c-1.138 0-2.085.497-2.717 1.077-.614.563-1.286 1.542-1.286 2.843h6Zm-1.997 2.08h28.836v-6H8.4v6Zm28.836 0c-1.03 0-1.997-.883-1.997-2.08h6c0-2.116-1.719-3.92-4.003-3.92v6Zm-1.997-2.08v44.483h6V12.816h-6Zm.106 45.272a2.375 2.375 0 0 1 .647-2.368c.397-.364.85-.502 1.244-.502v6c1.02 0 2.038-.367 2.81-1.076.771-.706 1.524-2.031 1.087-3.633l-5.788 1.579Z" mask="url(#b)"/></svg>
